images/social/foursquare.svg

<svg xmlns="http://www.w3.org/2000/svg" width="216.72" height="299.93" viewBox="0 0 216.72 299.93"><defs><style>.a{fill:#333;}</style></defs><title>foursquare</title><path class="a" d="M66.9,0H234.64c6.52.62,13.68,1.91,18.3,7,3.81,4.08,4.33,9.84,5.2,15.09a175.73,175.73,0,0,1-3.36,20.66c-10,48.31-19.81,96.67-30.2,144.9-1.14,5.05-3.22,10.24-7.44,13.51s-9.85,4.13-15.11,4.17c-15.67,0-31.34-.06-47,0-4.48-.17-7.19,3.9-9.89,6.83-24.39,27.26-49,54.32-73.49,81.5a18.38,18.38,0,0,1-22.38,4.15c-5.5-3.1-7.83-9.72-7.84-15.74q.06-129,0-258.07A25.4,25.4,0,0,1,49.12,7.14C53.91,2.6,60.51.79,66.9,0M78.54,31.53c-3,2.05-3.88,6-3.81,9.4.08,67.56-.07,135.11.07,202.67a17.81,17.81,0,0,0,2.47-2.44q22.82-29.6,45.82-59.06c2.37-2.93,4.51-6.31,8-8,4-2,8.51-1.72,12.82-1.93,15.06-.11,30.12.07,45.18-.08,4.3-.2,7.15-4.23,7.9-8.14,2.54-11.63,4.75-23.33,7.22-35,.48-2.26.84-4.75-.21-6.91a8.56,8.56,0,0,0-8.08-4.36q-26.5,0-53,0c-7.06-.08-12.53-6.91-12.61-13.68,0-4.58-.74-9.65,1.94-13.69,2.43-4,7.19-6,11.73-5.89,20.67,0,41.34,0,62,0,4.57.16,8.26-4.06,8.91-8.35,2.35-11.34,4.75-22.68,7.09-34,1.54-5.58-3.09-11.81-8.88-11.86-42-.08-84.08,0-126.12,0C84.15,30.22,81,29.73,78.54,31.53Z" transform="translate(-41.42)"/></svg>

<?xml version="1.0" encoding="UTF-8" ?>
<!DOCTYPE svg PUBLIC "-//W3C//DTD SVG 1.1//EN" "http://www.w3.org/Graphics/SVG/1.1/DTD/svg11.dtd">
<svg width="300pt" height="300pt" viewBox="0 0 300 300" version="1.1" xmlns="http://www.w3.org/2000/svg">
<g>
<path fill="#fff" opacity="1.00" d=" M 66.90 0.00 L 234.64 0.00 C 241.16 0.62 248.32 1.91 252.94 6.99 C 256.75 11.07 257.27 16.83 258.14 22.08 C 257.33 29.02 256.41 35.94 254.78 42.74 C 244.77 91.05 234.97 139.41 224.58 187.64 C 223.44 192.69 221.36 197.88 217.14 201.15 C 212.90 204.53 207.29 205.28 202.03 205.32 C 186.36 205.32 170.69 205.26 155.02 205.32 C 150.54 205.15 147.83 209.22 145.13 212.15 C 120.74 239.41 96.13 266.47 71.64 293.65 C 66.36 299.99 56.44 301.81 49.26 297.80 C 43.76 294.70 41.43 288.08 41.42 282.06 C 41.46 196.04 41.42 110.01 41.45 23.99 C 41.84 17.72 44.50 11.46 49.12 7.14 C 53.91 2.60 60.51 0.79 66.90 0.00 M 78.54 31.53 C 75.54 33.58 74.66 37.51 74.73 40.93 C 74.81 108.49 74.66 176.04 74.80 243.60 C 75.71 242.86 76.53 242.05 77.27 241.16 C 92.48 221.43 107.78 201.76 123.09 182.10 C 125.46 179.17 127.60 175.79 131.11 174.09 C 135.08 172.12 139.62 172.37 143.93 172.16 C 158.99 172.05 174.05 172.23 189.11 172.08 C 193.41 171.88 196.26 167.85 197.01 163.94 C 199.55 152.31 201.76 140.61 204.23 128.96 C 204.71 126.70 205.07 124.21 204.02 122.05 C 202.54 119.12 199.15 117.51 195.94 117.69 C 178.27 117.71 160.59 117.71 142.91 117.69 C 135.85 117.61 130.38 110.78 130.30 104.01 C 130.34 99.43 129.56 94.36 132.24 90.32 C 134.67 86.36 139.43 84.32 143.97 84.43 C 164.64 84.47 185.31 84.43 205.98 84.46 C 210.55 84.62 214.24 80.40 214.89 76.11 C 217.24 64.77 219.64 53.43 221.98 42.09 C 223.52 36.51 218.89 30.28 213.10 30.23 C 171.06 30.15 129.02 30.25 86.98 30.18 C 84.15 30.22 80.97 29.73 78.54 31.53 Z" />
</g>
</svg>
